app/assets/svg/contacts__social-vk.svg

<svg width="24" height="24" viewBox="0 0 24 24" fill="none" xmlns="http://www.w3.org/2000/svg">
<path d="M12 24C18.6274 24 24 18.6274 24 12C24 5.37258 18.6274 0 12 0C5.37258 0 0 5.37258 0 12C0 18.6274 5.37258 24 12 24Z" fill="#1A212F"/>
<path fill-rule="evenodd" clip-rule="evenodd" d="M11.5468 17.263H12.4886C12.4886 17.263 12.7731 17.2317 12.9184 17.0752C13.0521 16.9314 13.0478 16.6615 13.0478 16.6615C13.0478 16.6615 13.0294 15.3977 13.6159 15.2116C14.1941 15.0282 14.9366 16.433 15.7236 16.9731C16.3187 17.3819 16.7709 17.2923 16.7709 17.2923L18.8752 17.263C18.8752 17.263 19.976 17.1952 19.454 16.3297C19.4112 16.2589 19.15 15.6894 17.8895 14.5193C16.5701 13.2947 16.7467 13.4928 18.3361 11.3744C19.3041 10.0843 19.691 9.2967 19.5702 8.95936C19.4549 8.63807 18.743 8.72299 18.743 8.72299L16.3737 8.73775C16.3737 8.73775 16.1981 8.71379 16.0678 8.79166C15.9405 8.86802 15.8586 9.046 15.8586 9.046C15.8586 9.046 15.4836 10.0443 14.9835 10.8933C13.9285 12.6848 13.5066 12.7794 13.3342 12.6682C12.9331 12.4089 13.0332 11.6266 13.0332 11.0709C13.0332 9.33478 13.2966 8.6109 12.5205 8.42352C12.263 8.36127 12.0734 8.3202 11.4148 8.31357C10.5694 8.3048 9.85388 8.31613 9.44873 8.51464C9.17921 8.64663 8.97128 8.94075 9.09792 8.95765C9.2545 8.97862 9.60917 9.05327 9.7972 9.30932C10.04 9.6396 10.0314 10.3814 10.0314 10.3814C10.0314 10.3814 10.1709 12.4252 9.70564 12.6791C9.38627 12.8532 8.94818 12.4977 8.00761 10.8724C7.52567 10.0398 7.16181 9.11958 7.16181 9.11958C7.16181 9.11958 7.09164 8.9476 6.96651 8.85562C6.81463 8.74417 6.60243 8.70866 6.60243 8.70866L4.35101 8.72342C4.35101 8.72342 4.01303 8.73283 3.88896 8.87979C3.77858 9.01049 3.88019 9.28087 3.88019 9.28087C3.88019 9.28087 5.64282 13.4047 7.63862 15.4828C9.46863 17.3881 11.5468 17.263 11.5468 17.263Z" fill="#FFFDFB"/>
</svg>

<svg width="24" height="24" fill="none" xmlns="http://www.w3.org/2000/svg"><path d="M12 24c6.627 0 12-5.373 12-12S18.627 0 12 0 0 5.373 0 12s5.373 12 12 12Z" fill="#1A212F"/><path fill-rule="evenodd" clip-rule="evenodd" d="M11.547 17.263h.942s.284-.031.43-.188c.133-.144.129-.413.129-.413s-.019-1.264.568-1.45c.578-.184 1.32 1.221 2.108 1.761.595.409 1.047.32 1.047.32l2.104-.03s1.101-.068.579-.933c-.043-.071-.304-.64-1.564-1.81-1.32-1.225-1.143-1.027.446-3.146.968-1.29 1.355-2.077 1.234-2.415-.115-.32-.827-.236-.827-.236l-2.37.015s-.175-.024-.305.054c-.128.076-.21.254-.21.254s-.374.998-.875 1.847c-1.055 1.792-1.476 1.886-1.649 1.775-.4-.26-.3-1.041-.3-1.597 0-1.736.263-2.46-.514-2.647-.257-.063-.447-.104-1.105-.11-.846-.01-1.561.002-1.966.2-.27.133-.478.427-.351.444.156.02.511.095.7.351.242.33.233 1.072.233 1.072s.14 2.044-.325 2.298c-.32.174-.758-.181-1.698-1.807a15.113 15.113 0 0 1-.846-1.752s-.07-.172-.195-.264c-.152-.112-.365-.147-.365-.147l-2.251.014s-.338.01-.462.157c-.11.13-.009.4-.009.4s1.763 4.125 3.759 6.203c1.83 1.905 3.908 1.78 3.908 1.78Z" fill="#FFFDFB"/></svg>
